X:56
T:Warrens Victory. LIT.056
M:2/4
Q:1/4=140
L:1/8
B:Wm. Litten MS, 1802
Z:Village Music Project 2017 Anne Wride
K:D
FA df | fe eB | fe eB | BA AG |
FA df | fe eA | Bc dA/F/ | D2D2 :|
|: AF DF | A2A2 | AF dF | E2E2 |
FAdA | FA dA | Bc dA/F/ | D2D2:|

